svg/OSM-icons/amenity #7bffff °373737 !label=enamenities,deEinrichtungen/12019;amenity=casino;!name=;feature_group=tourism;[addr];[contact];!label=encasino,deSpielbank.svg

<svg xmlns="http://www.w3.org/2000/svg" viewBox="0 0 580 580" enable-background="new 0 0 580 580"><path fill="#111" stroke="#eee" stroke-width="3.408" d="m66.28 1.768c-41.34 0-64.57 21.371-64.57 65.04v450.12c0 40.844 20.895 62.23 62.19 62.23h452.02c41.31 0 62.23-20.315 62.23-62.23v-450.12c0-42.601-20.924-65.04-63.52-65.04-.004 0-448.5-.143-448.35 0z"/><g fill="#fff" stroke="#fff" stroke-linejoin="round" stroke-linecap="round" stroke-width="17.886"><path d="m83.82 154.16c61.1 47.01 122.2 94.02 183.3 141.03 75.71-40.06 151.43-80.12 227.14-120.17-60.949-45.985-121.9-91.97-182.85-137.96-75.866 39.03-151.73 78.07-227.6 117.1zm208.52-31.2c18.682-.912 39.666 8.279 45.974 27.11 6.84 18.18-8.07 36.766-24.908 42.34-21.1 7.561-49.19 4.403-62.25-15.72-9.457-12.777-5.632-31.362 6.148-41.22 9.518-8.425 22.454-12.356 35.04-12.506z"/><path d="m72.25 184.79c3.041 69.5 3.509 139.09 6.707 208.59 57.11 50.35 115.97 98.64 173.17 148.96-.64-74.1-1.28-148.19-1.921-222.29-59.34-45.658-118.68-91.32-178.03-136.98l.046 1.117.024.595zm42.1 59.11c20.98.299 35.638 19.859 40.14 38.742 6.422 17.33-3.367 41.627-23.267 43.772-22.02.938-38.37-19.731-42.1-39.72-6.422-17.642 4.952-42.06 25.22-42.794zm72.873 155.11c21.21.023 35.612 19.987 40.28 38.813 6.264 17.01-2.876 40.33-21.974 43.46-20.793 2.303-37.01-16.433-42.41-34.773-6.459-15.996-1.616-37.438 14.775-45.26 2.898-1.438 6.121-2.056 9.329-2.237z"/><path d="m281.51 322.26c.641 73.56 1.281 147.12 1.922 220.68 73.921-43.09 147.84-86.17 221.76-129.26.873-70.4 1.746-140.81 2.62-211.21-75.44 39.929-150.87 79.86-226.31 119.79zm195.14-79.16c15.732-.55 27.976 14.973 26.445 30.11-.765 21.509-17.269 40.547-36.96 47.546-15.419 4.488-35.23-5.813-35.598-23.06-2.617-26.523 19.627-52.607 46.11-54.602zm-63.719 92.61c15.3-.543 27.395 14.393 26.27 29.2-.224 21.451-16.39 40.929-36.02 48.24-15.614 4.951-36.19-5.276-36.507-23.02-2.566-26.477 19.772-52.48 46.25-54.43zm-64.63 89.82c15.16.002 26.759 14.734 25.677 29.38-.332 21.668-16.871 41.11-36.682 48.21-15.479 4.626-35.37-5.498-35.843-22.882-2.791-26.739 20.07-53.28 46.848-54.707z"/></g></svg>

<?xml version="1.0" encoding="utf-8"?>
<!-- Generator: Adobe Illustrator 15.0.0, SVG Export Plug-In . SVG Version: 6.00 Build 0)  -->
<!DOCTYPE svg PUBLIC "-//W3C//DTD SVG 1.1//EN" "http://www.w3.org/Graphics/SVG/1.1/DTD/svg11.dtd">
<svg version="1.1" xmlns="http://www.w3.org/2000/svg" xmlns:xlink="http://www.w3.org/1999/xlink" x="0px" y="0px" width="580px"
	 height="580px" viewBox="0 0 580 580" enable-background="new 0 0 580 580" xml:space="preserve">
<g id="Layer_1">
	<g id="Layer_2">
		<g id="g1327">
			<path id="path1329" fill="#111111" stroke="#EEEEEE" stroke-width="3.408" d="M66.275,1.768
				c-41.335,0-64.571,21.371-64.571,65.036v450.123c0,40.844,20.895,62.229,62.192,62.229H515.92
				c41.307,0,62.229-20.315,62.229-62.229V66.804c0-42.601-20.924-65.036-63.521-65.036C514.624,1.768,66.133,1.625,66.275,1.768z"
				/>
		</g>
	</g>
</g>
<g id="Layer_2_1_">
	<g>
		<path id="path2569" fill="#FFFFFF" stroke="#FFFFFF" stroke-width="17.8863" stroke-linecap="round" stroke-linejoin="round" d="
			M83.817,154.158c61.101,47.01,122.2,94.02,183.301,141.029c75.714-40.058,151.429-80.116,227.143-120.174
			c-60.949-45.985-121.897-91.97-182.846-137.955C235.549,76.092,159.684,115.125,83.817,154.158z M292.341,122.962
			c18.682-0.912,39.666,8.279,45.974,27.109c6.84,18.18-8.071,36.766-24.908,42.34c-21.098,7.561-49.188,4.403-62.253-15.72
			c-9.457-12.777-5.632-31.362,6.148-41.223C266.82,127.043,279.756,123.112,292.341,122.962z"/>
		<path id="path3341" fill="#FFFFFF" stroke="#FFFFFF" stroke-width="17.8863" stroke-linecap="round" stroke-linejoin="round" d="
			M72.255,184.795c3.041,69.504,3.509,139.094,6.707,208.592c57.114,50.347,115.969,98.637,173.169,148.96
			c-0.64-74.096-1.28-148.191-1.921-222.287c-59.342-45.658-118.684-91.318-178.025-136.977l0.046,1.117L72.255,184.795z
			 M114.351,243.904c20.98,0.299,35.638,19.859,40.14,38.742c6.422,17.33-3.367,41.627-23.267,43.772
			c-22.017,0.938-38.372-19.731-42.096-39.72C82.706,269.056,94.08,244.64,114.351,243.904z M187.224,399.012
			c21.209,0.023,35.612,19.987,40.278,38.813c6.264,17.006-2.876,40.332-21.974,43.458c-20.793,2.303-37.01-16.433-42.408-34.773
			c-6.459-15.996-1.616-37.438,14.775-45.261C180.793,399.811,184.016,399.193,187.224,399.012z"/>
		<path id="path3343" fill="#FFFFFF" stroke="#FFFFFF" stroke-width="17.8863" stroke-linecap="round" stroke-linejoin="round" d="
			M281.511,322.262c0.641,73.561,1.281,147.12,1.922,220.68c73.921-43.086,147.842-86.171,221.763-129.257
			c0.873-70.403,1.746-140.808,2.62-211.212C432.381,242.402,356.945,282.332,281.511,322.262z M476.653,243.101
			c15.732-0.55,27.976,14.973,26.445,30.113c-0.765,21.509-17.269,40.547-36.96,47.546c-15.419,4.488-35.234-5.813-35.598-23.057
			C427.923,271.18,450.167,245.096,476.653,243.101z M412.934,335.711c15.3-0.543,27.395,14.393,26.271,29.205
			c-0.224,21.451-16.39,40.929-36.017,48.244c-15.614,4.951-36.188-5.276-36.507-23.021
			C364.115,363.662,386.453,337.655,412.934,335.711z M348.306,425.527c15.159,0.002,26.759,14.734,25.677,29.38
			c-0.332,21.668-16.871,41.111-36.682,48.209c-15.479,4.626-35.373-5.498-35.843-22.882
			C298.667,453.495,321.526,426.955,348.306,425.527z"/>
	</g>
</g>
</svg>
